X: 29158
T: Never Was Piping So Gay
R: reel
M: 4/4
K: Gmajor
G,2B,D GBdB|cafd cAFA|G2BG DGBG|AF~F2 dFAF|
G2BG DGB,G|Aafd ^cdef|~g3d ~c3A|1 FGAc BGDB,:|2 FGAF G2Bd||
|:~g3d ^cdBG|DGBd cAFA|GBBA BcdB|cafd ^cdef|
gbaf gdBG|DGBd cAFA|BG~G2 AF~F2|1 BdcA G2Bd:|2 BdcA G2DB,||

